X:29
T: Tá mé 'mo shuí, S. 88
N: I0528
O: Irland
S: O BOYLE, Sean: 25 Irish Folksongs, Dublin 1976]
R: Liebeslied, verbotene Liebe]
M: 3/4
L: 1/8
K: E
 | B2B2c2 | A4B2 | G4A2 | FE3E2 | E6- | E2z2
E2 | E2E2E2 | =d3cd2 | e4Bc | =dB3G2 | A6- | A2z2
GF | E2E2E2 | =d2c2d2 | e4Bc | =dB3G2 | A6- | A2z2
GA | B2B2c2 | A4B2 | G4A2 | FE3E2 | E6- | E2z4

